X:1
T:[ID 8-99]
T:[ID 8-99]
T:Bezeichnung standardisiert: Menuett Menuet
T:Urheber unbekannt Datum in der hier transkribierten schriftlichen Quelle: 1792
C:Urheber unbekannt
C:Datum in der hier transkribierten schriftlichen Quelle: 1792
L:1/8
M:3/4
K:G
V:1 treble 
V:1
 g4 (G/A/B/c/) | d2 d2 d2 | e2 efgf | e4 d2 | B2 cdec | B2 cdec | e2 (ed)(dc) | B4 A2 :: A2 B2 c2 | %9
 GBdf g2 | A2 B2 c2 | GBdf g2 | e2 cege | d2 Bdgd | (3edc B2 A2 | A4 G2 :| %16

